X:1
T:RVW2/1/140 (Merry) Green Broom Fields
T:RVW2/1/140 (Merry) Green Broom Fields
T:(A Wager A Wager)
T:Transcribed by Simon Furey and Lewis Jones Mrs. Powell, Herefordshire, July 1909 [9 of 13]
C:Transcribed by Simon Furey and Lewis Jones
C:Mrs. Powell, Herefordshire, July 1909 [9 of 13]
L:1/8
Q:1/4=100
M:2/4
K:G
V:1 treble 
V:1
"^(editorial suggestion)" G |"^(a)" A>B c>d | e>g fd | e2 d>B | A3 A | e>de>g |"^(b)" a2 f>d | %7
 !fermata!e3 d | e>d e>g | a2 fa | gedB | G2 AB |"^(c)" cAgf | e>d BB | A4 | z3 || G | %17
"^(a) var." A2 Bc | d2 ef | e2 d>B | A3 A | e>de>g |"^(b) var." a2 gf | !fermata!e2 cd | e>d e>g | %25
 a2 fa | gedB | G2 AB |"^(c) var." c>d ef | e>d BB | A4 | z3 |] %32

